X: 32937
T: Presbyterian, The
R: three-two
M: 3/2
K: Fmajor
|:GB BG c/B/A/G/|^FA A^F A2|GB A/B/c/A/ B/c/d|DG GB AG:|
gb bg ba/g/|fa af ag/f/|_ef gf ga|f3 _edc|
Bd fB df|Ac fA cf|GB dG Bd|^F3 _EDC|
B,D DB, DC/B,|A,C CA, C2|G,B, A,C B,D|C_E D^F G2|

